api/icons/Feather Logo.svg

<svg width="74" height="18" viewBox="0 0 74 18" fill="none" xmlns="http://www.w3.org/2000/svg">
<path d="M9.80664 10.6084H3.61914V17H0.396484V1.35938H10.5801V3.96973H3.61914V8.00879H9.80664V10.6084ZM17.3584 17.2148C15.654 17.2148 14.2646 16.6921 13.1904 15.6465C12.1234 14.6009 11.5898 13.208 11.5898 11.4678V11.167C11.5898 9.99967 11.8154 8.95768 12.2666 8.04102C12.7178 7.11719 13.3551 6.4082 14.1787 5.91406C15.0094 5.41276 15.9548 5.16211 17.0146 5.16211C18.6045 5.16211 19.8542 5.66341 20.7637 6.66602C21.6803 7.66862 22.1387 9.09017 22.1387 10.9307V12.1982H14.7373C14.8376 12.9574 15.1383 13.5661 15.6396 14.0244C16.1481 14.4827 16.7891 14.7119 17.5625 14.7119C18.7585 14.7119 19.693 14.2786 20.3662 13.4121L21.8916 15.1201C21.4261 15.779 20.7959 16.2946 20.001 16.667C19.2061 17.0322 18.3252 17.2148 17.3584 17.2148ZM17.0039 7.67578C16.388 7.67578 15.8867 7.88346 15.5 8.29883C15.1204 8.71419 14.877 9.30859 14.7695 10.082H19.0879V9.83496C19.0736 9.14746 18.8874 8.61751 18.5293 8.24512C18.1712 7.86556 17.6628 7.67578 17.0039 7.67578ZM30.6465 17C30.5033 16.7207 30.3994 16.3734 30.335 15.958C29.583 16.7959 28.6055 17.2148 27.4023 17.2148C26.2637 17.2148 25.3184 16.8854 24.5664 16.2266C23.8216 15.5677 23.4492 14.737 23.4492 13.7344C23.4492 12.5026 23.904 11.5573 24.8135 10.8984C25.7301 10.2396 27.0514 9.90658 28.7773 9.89941H30.2061V9.2334C30.2061 8.69629 30.0664 8.2666 29.7871 7.94434C29.515 7.62207 29.0817 7.46094 28.4873 7.46094C27.9645 7.46094 27.5527 7.58626 27.252 7.83691C26.9583 8.08757 26.8115 8.43132 26.8115 8.86816H23.707C23.707 8.19499 23.9147 7.57194 24.3301 6.99902C24.7454 6.42611 25.3327 5.97852 26.0918 5.65625C26.8509 5.32682 27.7031 5.16211 28.6484 5.16211C30.0807 5.16211 31.2158 5.52376 32.0537 6.24707C32.8988 6.96322 33.3213 7.97298 33.3213 9.27637V14.3145C33.3285 15.4173 33.4824 16.2516 33.7832 16.8174V17H30.6465ZM28.0791 14.8408C28.5374 14.8408 28.96 14.7406 29.3467 14.54C29.7334 14.3324 30.0199 14.0566 30.2061 13.7129V11.7148H29.0459C27.4919 11.7148 26.6647 12.252 26.5645 13.3262L26.5537 13.5088C26.5537 13.8955 26.6898 14.2142 26.9619 14.4648C27.234 14.7155 27.6064 14.8408 28.0791 14.8408ZM39.4229 2.51953V5.37695H41.4102V7.6543H39.4229V13.4551C39.4229 13.8848 39.5052 14.1927 39.6699 14.3789C39.8346 14.5651 40.1497 14.6582 40.6152 14.6582C40.959 14.6582 41.2633 14.6331 41.5283 14.583V16.9355C40.9196 17.1217 40.293 17.2148 39.6484 17.2148C37.4714 17.2148 36.3613 16.1156 36.3184 13.917V7.6543H34.6211V5.37695H36.3184V2.51953H39.4229ZM46.1689 6.64453C46.9925 5.65625 48.0273 5.16211 49.2734 5.16211C51.7943 5.16211 53.0726 6.62663 53.1084 9.55566V17H50.0039V9.6416C50.0039 8.97559 49.8607 8.48503 49.5742 8.16992C49.2878 7.84766 48.8115 7.68652 48.1455 7.68652C47.236 7.68652 46.5771 8.03743 46.1689 8.73926V17H43.0645V0.5H46.1689V6.64453ZM60.7998 17.2148C59.0954 17.2148 57.7061 16.6921 56.6318 15.6465C55.5648 14.6009 55.0312 13.208 55.0312 11.4678V11.167C55.0312 9.99967 55.2568 8.95768 55.708 8.04102C56.1592 7.11719 56.7965 6.4082 57.6201 5.91406C58.4508 5.41276 59.3962 5.16211 60.4561 5.16211C62.0459 5.16211 63.2956 5.66341 64.2051 6.66602C65.1217 7.66862 65.5801 9.09017 65.5801 10.9307V12.1982H58.1787C58.279 12.9574 58.5798 13.5661 59.0811 14.0244C59.5895 14.4827 60.2305 14.7119 61.0039 14.7119C62.1999 14.7119 63.1344 14.2786 63.8076 13.4121L65.333 15.1201C64.8675 15.779 64.2373 16.2946 63.4424 16.667C62.6475 17.0322 61.7666 17.2148 60.7998 17.2148ZM60.4453 7.67578C59.8294 7.67578 59.3281 7.88346 58.9414 8.29883C58.5618 8.71419 58.3184 9.30859 58.2109 10.082H62.5293V9.83496C62.515 9.14746 62.3288 8.61751 61.9707 8.24512C61.6126 7.86556 61.1042 7.67578 60.4453 7.67578ZM73.8838 8.28809C73.4613 8.23079 73.0889 8.20215 72.7666 8.20215C71.5921 8.20215 70.8223 8.59961 70.457 9.39453V17H67.3525V5.37695H70.2852L70.3711 6.7627C70.9941 5.69564 71.8571 5.16211 72.96 5.16211C73.3037 5.16211 73.626 5.20866 73.9268 5.30176L73.8838 8.28809Z" fill="black"/>
</svg>

<svg width="74" height="18" fill="none" xmlns="http://www.w3.org/2000/svg"><path d="M9.807 10.608H3.619V17H.396V1.36H10.58v2.61H3.62v4.039h6.187v2.6zm7.551 6.607c-1.704 0-3.093-.523-4.168-1.569-1.067-1.045-1.6-2.438-1.6-4.178v-.301c0-1.167.225-2.21.677-3.126.45-.924 1.088-1.633 1.912-2.127.83-.501 1.776-.752 2.836-.752 1.59 0 2.84.501 3.749 1.504.916 1.003 1.375 2.424 1.375 4.265v1.267h-7.402c.1.76.401 1.368.903 1.826.508.459 1.15.688 1.922.688 1.197 0 2.131-.433 2.804-1.3l1.526 1.708c-.466.659-1.096 1.175-1.891 1.547-.795.365-1.676.548-2.643.548zm-.354-9.54c-.616 0-1.117.208-1.504.624-.38.415-.623 1.01-.73 1.783h4.318v-.247c-.014-.688-.2-1.217-.559-1.59-.358-.38-.866-.57-1.525-.57zM30.646 17a3.447 3.447 0 0 1-.311-1.042c-.752.838-1.73 1.257-2.933 1.257-1.138 0-2.084-.33-2.836-.988-.744-.66-1.117-1.49-1.117-2.493 0-1.231.455-2.177 1.364-2.836.917-.658 2.238-.991 3.964-.999h1.43v-.666c0-.537-.14-.966-.42-1.289-.272-.322-.705-.483-1.3-.483-.522 0-.934.125-1.235.376-.294.25-.44.594-.44 1.031h-3.105c0-.673.208-1.296.623-1.869.415-.573 1.003-1.02 1.762-1.343.759-.33 1.611-.494 2.556-.494 1.433 0 2.568.362 3.406 1.085.845.716 1.267 1.726 1.267 3.03v5.038c.008 1.102.161 1.937.462 2.502V17h-3.137zm-2.567-2.16c.458 0 .881-.1 1.268-.3.386-.208.673-.483.86-.827v-1.998h-1.161c-1.554 0-2.381.537-2.482 1.611l-.01.183c0 .386.136.705.408.956.272.25.644.376 1.117.376zM39.423 2.52v2.857h1.987v2.277h-1.987v5.801c0 .43.082.738.247.924.165.186.48.28.945.28.344 0 .648-.026.913-.076v2.353a6.39 6.39 0 0 1-1.88.279c-2.177 0-3.287-1.1-3.33-3.298V7.654h-1.697V5.377h1.697V2.52h3.105zm6.746 4.125c.824-.989 1.858-1.483 3.104-1.483 2.521 0 3.8 1.465 3.835 4.394V17h-3.104V9.642c0-.666-.143-1.157-.43-1.472-.286-.322-.762-.483-1.428-.483-.91 0-1.569.35-1.977 1.052V17h-3.104V.5h3.104v6.145zm14.63 10.57c-1.704 0-3.093-.523-4.167-1.569-1.067-1.045-1.6-2.438-1.6-4.178v-.301c0-1.167.225-2.21.676-3.126.451-.924 1.089-1.633 1.912-2.127.83-.501 1.776-.752 2.836-.752 1.59 0 2.84.501 3.75 1.504.916 1.003 1.374 2.424 1.374 4.265v1.267H58.18c.1.76.4 1.368.902 1.826.508.459 1.15.688 1.923.688 1.196 0 2.13-.433 2.804-1.3l1.525 1.708c-.465.659-1.096 1.175-1.89 1.547-.795.365-1.676.548-2.643.548zm-.354-9.54c-.616 0-1.117.208-1.504.624-.38.415-.623 1.01-.73 1.783h4.318v-.247c-.014-.688-.2-1.217-.558-1.59-.358-.38-.867-.57-1.526-.57zm13.439.613a8.432 8.432 0 0 0-1.117-.086c-1.175 0-1.945.398-2.31 1.193V17h-3.104V5.377h2.932l.086 1.386c.623-1.067 1.486-1.6 2.589-1.6.344 0 .666.046.967.139l-.043 2.986z" fill="#000"/></svg>
